src/assets/duotone/JavaScript.svg

<svg width="24" height="24" viewBox="0 0 24 24"  xmlns="http://www.w3.org/2000/svg">
<path opacity="0.4" d="M4.12009 2H19.8901C20.4901 2 20.9501 2.52 20.8801 3.11L19.0801 19.33C19.0401 19.73 18.7501 20.07 18.3601 20.18L12.2801 21.92C12.1001 21.97 11.9101 21.97 11.7301 21.92L5.65012 20.18C5.26012 20.07 4.98009 19.73 4.93009 19.33L3.1301 3.11C3.0601 2.52 3.52009 2 4.12009 2Z" />
<path d="M10.6198 16.7398C10.5498 16.7398 10.4798 16.7298 10.4098 16.7098L7.28983 15.8098C6.88983 15.6898 6.65988 15.2798 6.77988 14.8798C6.88988 14.4798 7.30987 14.2598 7.70987 14.3698L9.86985 14.9898V7.00977C9.86985 6.59977 10.2098 6.25977 10.6198 6.25977C11.0298 6.25977 11.3698 6.59977 11.3698 7.00977V15.9798C11.3698 16.2198 11.2599 16.4398 11.0699 16.5798C10.9399 16.6798 10.7798 16.7398 10.6198 16.7398Z" />
<path d="M12.9001 16.7498C12.5601 16.7498 12.2601 16.5198 12.1701 16.1798C12.0701 15.7798 12.3101 15.3698 12.7201 15.2698L15.7501 14.5098V12.8098L13.4601 13.1398C13.2401 13.1698 13.0301 13.1098 12.8601 12.9598C12.7001 12.8198 12.6001 12.6098 12.6001 12.3898V7.44982C12.6001 7.07982 12.8701 6.75982 13.2401 6.70982L16.3901 6.25982C16.8001 6.19982 17.1801 6.48982 17.2401 6.89982C17.3001 7.30982 17.0101 7.68982 16.6001 7.74982L14.1001 8.09982V11.5298L16.3901 11.1998C16.6101 11.1698 16.8201 11.2298 16.9901 11.3798C17.1501 11.5198 17.2501 11.7298 17.2501 11.9498V15.0998C17.2501 15.4398 17.0201 15.7398 16.6801 15.8298L13.0801 16.7298C13.0201 16.7398 12.9601 16.7498 12.9001 16.7498Z" />
</svg>

<?xml version="1.0" encoding="UTF-8"?>
<svg width="24" height="24" viewBox="0 0 24 24" xmlns="http://www.w3.org/2000/svg">
 <path d="m4.1201 2h15.77c0.6 0 1.06 0.52 0.99 1.11l-1.8 16.22c-0.04 0.4-0.33 0.74-0.72 0.85l-6.08 1.74c-0.18 0.05-0.37 0.05-0.55 0l-6.08-1.74c-0.39-0.11-0.67003-0.45-0.72003-0.85l-1.8-16.22c-0.07-0.59 0.38999-1.11 0.98999-1.11z" opacity=".4"/>
 <path d="m10.62 16.74c-0.07 0-0.14-0.01-0.21-0.03l-3.12-0.9c-0.4-0.12-0.62995-0.53-0.50995-0.93 0.11-0.4 0.52999-0.62 0.92999-0.51l2.16 0.62v-7.98c0-0.41 0.33995-0.75 0.74995-0.75s0.75 0.34 0.75 0.75v8.97c0 0.24-0.1099 0.46-0.2999 0.6-0.13 0.1-0.2901 0.16-0.4501 0.16z"/>
 <path d="m12.9 16.75c-0.34 0-0.64-0.23-0.73-0.57-0.1-0.4 0.14-0.81 0.55-0.91l3.03-0.76v-1.7l-2.29 0.33c-0.22 0.03-0.43-0.03-0.6-0.18-0.16-0.14-0.26-0.35-0.26-0.57v-4.94c0-0.37 0.27-0.69 0.64-0.74l3.15-0.45c0.41-0.06 0.79 0.23 0.85 0.64s-0.23 0.79-0.64 0.85l-2.5 0.35v3.43l2.29-0.33c0.22-0.03 0.43 0.03 0.6 0.18 0.16 0.14 0.26 0.35 0.26 0.57v3.15c0 0.34-0.23 0.64-0.57 0.73l-3.6 0.9c-0.06 0.01-0.12 0.02-0.18 0.02z"/>
</svg>
